X: 10821
T: COTILLION No. 7. tune 6
C:
%R: reel, polka
B: Elias Howe "The Musician's Companion" Part 1 1842 p.82 #1
S: http://imslp.org/wiki/The_Musician's_Companion_(Howe,_Elias)
Z: 2015 John Chambers <jc:trillian.mit.edu>
M: 2/4
L: 1/16
K: Bb
% - - - - - - - - - - - - - - - - - - - - - - - - -
[|\
fecd B2B2 | d2d2 cAF2 | fecd B2B2 | Bcde fgab |\
fecd B2B2 | d2d2 cAF2 | fecd B2B2 | cBcd B4 H|]
f2f2f2f2 | f2ga b2f2 | bagf =efBf | edcB cAG2 |\
f2f2f2f2 | f2ga a2f2 | bagf =egf_e | dfed ccd"^D.C."e |]
"Minor"\
G2G2 d2g2 | ^fgab d2d2 | c2c2 B2b2 | a^gab g2g2 |\
G2G2 d2g2 | ^fgab d2d2 | c2c2 BAG^F | GABc dba"^D.C."g |]
% - - - - - - - - - - Dance description - - - - - - - - - -
%%begintext align
%% First 2 give right hand across,
%% left hand back,
%% form a line of 4,
%% giving your other hand to your partner,
%% balance 4 in a line,
%% half promenade,
%% ladies forward and back,
%% gentlemen the same,
%% balance your partners,
%% and half right and left to place,
%% next 2 same, &c.
%%endtext
%- - - - - - - - - - - - - - - - - - - - - - - - -
%%sep 1 1 300


